src/assets/images/mobile/FacebookIcon.svg

<svg width="18" height="33" viewBox="0 0 18 33" fill="none" xmlns="http://www.w3.org/2000/svg">
<path d="M16.7852 18.7813L17.6719 13H12.125V9.24832C12.125 7.6667 12.8998 6.12501 15.3843 6.12501H17.9063V1.20313C17.9063 1.20313 15.6175 0.812515 13.4293 0.812515C8.86084 0.812515 5.87499 3.58125 5.87499 8.59377V13H0.796875V18.7813H5.87499V32.7571C6.90877 32.9191 7.95361 33.0003 9 33C10.0631 33 11.1067 32.9168 12.125 32.7571V18.7813H16.7852Z" fill="#7FDEE4"/>
</svg>

<svg width="18" height="33" fill="none" xmlns="http://www.w3.org/2000/svg"><path d="M16.785 18.781 17.672 13h-5.547V9.248c0-1.581.775-3.123 3.26-3.123h2.521V1.203s-2.288-.39-4.477-.39c-4.568 0-7.554 2.768-7.554 7.78V13H.797v5.781h5.078v13.976a20.148 20.148 0 0 0 6.25 0V18.781h4.66z" fill="#7FDEE4"/></svg>
